images/flickr.svg

<?xml version="1.0" encoding="UTF-8" standalone="no"?>
<!-- Generator: Adobe Illustrator 16.0.4, SVG Export Plug-In . SVG Version: 6.00 Build 0)  -->
<!DOCTYPE svg  PUBLIC '-//W3C//DTD SVG 1.1//EN'  'http://www.w3.org/Graphics/SVG/1.1/DTD/svg11.dtd'>
<svg id="Layer_1" xmlns="http://www.w3.org/2000/svg" xml:space="preserve" height="1792px" viewBox="0 0 1792 1792" width="1792px" version="1.1" y="0px" x="0px" xmlns:xlink="http://www.w3.org/1999/xlink" enable-background="new 0 0 1792 1792">
<path d="m1376 128c79.333 0 147.17 28.167 203.5 84.5s84.5 124.17 84.5 203.5v960c0 79.333-28.167 147.17-84.5 203.5s-124.2 84.5-203.5 84.5h-960c-79.333 0-147.17-28.167-203.5-84.5s-84.5-124.2-84.5-203.5v-960c0-79.333 28.167-147.17 84.5-203.5s124.17-84.5 203.5-84.5h960zm-550 768c0-58.667-20.667-108.67-62-150s-91.333-62-150-62-108.67 20.667-150 62-62 91.333-62 150 20.667 108.67 62 150 91.333 62 150 62 108.67-20.667 150-62 62-91.33 62-150zm564 0c0-58.667-20.667-108.67-62-150s-91.333-62-150-62-108.67 20.667-150 62-62 91.333-62 150 20.667 108.67 62 150 91.333 62 150 62 108.67-20.667 150-62 62-91.33 62-150z" fill="#fff"/>
</svg>

<?xml version="1.0" encoding="utf-8"?>
<!-- Generator: Adobe Illustrator 16.0.4, SVG Export Plug-In . SVG Version: 6.00 Build 0)  -->
<!DOCTYPE svg PUBLIC "-//W3C//DTD SVG 1.1//EN" "http://www.w3.org/Graphics/SVG/1.1/DTD/svg11.dtd">
<svg version="1.1" id="Layer_1" xmlns="http://www.w3.org/2000/svg" xmlns:xlink="http://www.w3.org/1999/xlink" x="0px" y="0px"
	 width="1792px" height="1792px" viewBox="0 0 1792 1792" enable-background="new 0 0 1792 1792" xml:space="preserve">
<path fill="#FFFFFF" d="M1376,128c79.333,0,147.167,28.167,203.5,84.5S1664,336.667,1664,416v960
	c0,79.333-28.167,147.167-84.5,203.5S1455.333,1664,1376,1664H416c-79.333,0-147.167-28.167-203.5-84.5S128,1455.333,128,1376V416
	c0-79.333,28.167-147.167,84.5-203.5S336.667,128,416,128H1376z M826,896c0-58.667-20.667-108.667-62-150s-91.333-62-150-62
	s-108.667,20.667-150,62s-62,91.333-62,150s20.667,108.667,62,150s91.333,62,150,62s108.667-20.667,150-62S826,954.667,826,896z
	 M1390,896c0-58.667-20.667-108.667-62-150s-91.333-62-150-62s-108.667,20.667-150,62s-62,91.333-62,150s20.667,108.667,62,150
	s91.333,62,150,62s108.667-20.667,150-62S1390,954.667,1390,896z"/>
</svg>
